X:1
T:St. Frances, CM
T:St. Frances, CM
T:George Augustus Löhr, 1861
T:Public Domain Courtesy of the Cyber Hymnal™
C:George Augustus Löhr, 1861
Z:Public Domain
Z:Courtesy of the Cyber Hymnal™
%%score ( 1 2 ) 3
L:1/8
Q:1/4=108
M:4/4
K:Eb
V:1 treble 
V:2 treble 
V:3 bass 
V:1
 [B,G]2 | [EA]2 [EG]2 [DF]2 E2 | [FB]2 [FA]2 [EG]2 [EG]2 | F2 [DB]2 [Gc]2 c2 | [DB]6 [FB]2 | %5
 [Ee]2 [_DG]2 [CA]2 [Ec]2 | [DB]2 [DA]2 [EG]2 [_DG]2 | [CA]2 [CF]2 [B,E]2 [B,D]2 | [B,E]6 |] %9
V:2
 x2 | x6 E2 | x8 | F2 x2 (FE) x2 | x8 | x8 | x8 | x8 | x6 |] %9
V:3
 [E,G,]2 | [E,C]2 [E,B,]2 [B,,A,]2 [C,G,]2 | [D,B,]2 [D,B,]2 [E,B,]2 [E,B,]2 | %3
 [D,B,]2 [B,,F,]2 [E,G,]2 [F,=A,]2 | [B,,B,]6 [D,A,]2 | [E,G,]2 [E,B,]2 [A,,A,]2 [A,,A,]2 | %6
 [B,,F,]2 [B,,B,]2 [E,B,]2 [E,B,]2 | [A,,A,]2 [A,,A,]2 [B,,G,]2 [B,,F,]2 | [E,G,]6 |] %9

